assets/image/logo.svg

<svg width="99" height="48" viewBox="0 0 99 48" fill="none" xmlns="http://www.w3.org/2000/svg">
<g clip-path="url(#clip0_31_483)">
<path d="M49.1567 46.0059C75.2617 46.0059 96.424 36.13 96.424 23.9475C96.424 11.765 75.2617 1.88916 49.1567 1.88916C23.0517 1.88916 1.8894 11.765 1.8894 23.9475C1.8894 36.13 23.0517 46.0059 49.1567 46.0059Z" fill="#0D0D0D"/>
<path d="M97.1972 18.7444C96.4257 17.038 95.3836 15.4675 94.1111 14.0934C91.5612 11.2789 87.9504 8.77046 83.3799 6.63711C78.9015 4.54749 73.7005 2.90891 67.9218 1.76974C55.5237 -0.589913 42.7919 -0.589913 30.3938 1.76974C24.6151 2.90891 19.4141 4.54749 14.9357 6.63711C10.3652 8.77046 6.75441 11.2789 4.20452 14.0934C2.93197 15.4669 1.89052 17.0376 1.12072 18.7444C0.381954 20.3801 -0.00012207 22.1542 -0.00012207 23.9489C-0.00012207 25.7436 0.381954 27.5178 1.12072 29.1534C1.89052 30.8602 2.93197 32.4309 4.20452 33.8044C6.75441 36.619 10.3652 39.1275 14.9357 41.2585C19.4141 43.3504 24.6151 44.9867 30.3938 46.1281C42.7919 48.4878 55.5237 48.4878 67.9218 46.1281C73.7005 44.9775 78.9015 43.3504 83.3799 41.2585C87.9504 39.1275 91.5612 36.619 94.1111 33.8044C95.3836 32.4304 96.4257 30.8598 97.1972 29.1534C97.9351 27.5176 98.3167 25.7435 98.3167 23.9489C98.3167 22.1544 97.9351 20.3803 97.1972 18.7444ZM96.4263 23.9478C96.4263 36.1311 75.2539 46.0061 49.1589 46.0061C23.064 46.0061 1.89169 36.1311 1.89169 23.9478C1.89169 11.7645 23.064 1.89172 49.1589 1.89172C75.2539 1.89172 96.4263 11.7668 96.4263 23.9478Z" fill="url(#paint0_linear_31_483)"/>
<path d="M29.1558 27.5104H21.5291V31.2362H17.0415V23.7845H29.5907C30.9853 23.7845 31.7908 23.1102 31.7908 22.1068C31.7908 21.1034 30.9853 20.4522 29.5907 20.4522H17.0415L20.0332 16.6618H29.1834C33.694 16.6618 36.329 18.8826 36.329 22.1298C36.329 25.377 33.6871 27.5104 29.1558 27.5104ZM47.4445 22.093C48.7287 24.3368 49.2856 25.4253 49.7965 26.4494C50.2752 25.4253 50.8413 24.3598 52.1278 22.1137L54.459 17.9713C54.9814 17.0347 55.7662 16.4248 56.9422 16.4248C58.0744 16.4248 59.0778 17.0784 59.4737 18.4293L63.1558 31.2385H58.6682L57.2874 26.1617C56.8271 24.5071 56.5256 23.3311 56.2863 22.1528C55.8076 23.1769 55.2622 24.2885 54.2611 26.1848L52.3004 29.8439C51.5363 31.2822 50.7953 31.4779 49.7067 31.4779C48.6182 31.4779 47.8657 31.2822 47.1154 29.8439L45.1547 26.1617C44.0869 24.1573 43.5645 23.1332 43.1065 22.1528C42.8879 23.3035 42.5611 24.5278 42.1261 26.1617L40.7453 31.2385H36.3245L40.0918 18.4293C40.4853 17.0784 41.5094 16.4248 42.6416 16.4248C43.7739 16.4248 44.5817 17.0116 45.1041 17.9713L47.4445 22.093ZM76.8787 27.5173H69.2521V31.2431H64.7644V23.7913H77.3137C78.7083 23.7913 79.5138 23.1171 79.5138 22.1137C79.5138 21.1103 78.7083 20.459 77.3137 20.459H64.7644L67.7562 16.6687H76.9017C81.4124 16.6687 84.0474 18.8895 84.0474 22.1367C84.0474 25.3839 81.4009 27.5104 76.8695 27.5104L76.8787 27.5173Z" fill="url(#paint1_linear_31_483)"/>
</g>
<defs>
<linearGradient id="paint0_linear_31_483" x1="-3.12365e-05" y1="23.9478" x2="98.3157" y2="23.9478" gradientUnits="userSpaceOnUse">
<stop stop-color="#EDEDED"/>
<stop offset="1" stop-color="#A2A0A1"/>
</linearGradient>
<linearGradient id="paint1_linear_31_483" x1="17.0415" y1="23.9479" x2="84.0359" y2="23.9479" gradientUnits="userSpaceOnUse">
<stop stop-color="#EDEDED"/>
<stop offset="1" stop-color="#A2A0A1"/>
</linearGradient>
<clipPath id="clip0_31_483">
<rect width="98.3157" height="47.8979" fill="white"/>
</clipPath>
</defs>
</svg>

<svg width="99" height="48" fill="none" xmlns="http://www.w3.org/2000/svg"><g clip-path="url(#a)"><path d="M49.157 46.006c26.105 0 47.267-9.876 47.267-22.058 0-12.183-21.162-22.059-47.267-22.059-26.105 0-47.268 9.876-47.268 22.059 0 12.182 21.163 22.058 47.268 22.058Z" fill="#0D0D0D"/><path d="M97.197 18.744a17.387 17.387 0 0 0-3.086-4.65c-2.55-2.815-6.16-5.324-10.731-7.457-4.478-2.09-9.68-3.728-15.458-4.867a100.36 100.36 0 0 0-37.528 0c-5.779 1.139-10.98 2.777-15.458 4.867-4.57 2.133-8.182 4.642-10.731 7.456a17.322 17.322 0 0 0-3.084 4.651 12.644 12.644 0 0 0 0 10.41 17.322 17.322 0 0 0 3.084 4.65c2.55 2.815 6.16 5.323 10.73 7.454 4.48 2.092 9.68 3.729 15.459 4.87a100.357 100.357 0 0 0 37.528 0c5.779-1.15 10.98-2.778 15.458-4.87 4.57-2.13 8.181-4.639 10.731-7.454a17.386 17.386 0 0 0 3.086-4.65 12.657 12.657 0 0 0 0-10.41Zm-.77 5.204c0 12.183-21.173 22.058-47.268 22.058-26.095 0-47.267-9.875-47.267-22.058 0-12.184 21.172-22.056 47.267-22.056 26.095 0 47.267 9.875 47.267 22.056Z" fill="url(#b)"/><path d="M29.156 27.51h-7.627v3.726h-4.488v-7.451h12.55c1.394 0 2.2-.675 2.2-1.678 0-1.004-.806-1.655-2.2-1.655H17.04l2.992-3.79h9.15c4.511 0 7.146 2.22 7.146 5.468 0 3.247-2.642 5.38-7.173 5.38Zm18.288-5.417c1.285 2.244 1.842 3.332 2.352 4.356.48-1.024 1.045-2.09 2.332-4.335l2.331-4.143c.522-.936 1.307-1.546 2.483-1.546 1.132 0 2.136.653 2.532 2.004l3.682 12.81h-4.488l-1.38-5.077c-.46-1.655-.762-2.83-1.002-4.01-.478 1.025-1.024 2.136-2.025 4.033l-1.96 3.659c-.765 1.438-1.506 1.634-2.594 1.634-1.089 0-1.841-.196-2.592-1.634l-1.96-3.682c-1.068-2.005-1.59-3.029-2.049-4.01-.218 1.151-.545 2.376-.98 4.01l-1.38 5.076h-4.422l3.768-12.809c.393-1.35 1.417-2.004 2.55-2.004 1.132 0 1.94.587 2.462 1.546l2.34 4.122Zm29.435 5.424h-7.627v3.726h-4.488v-7.452h12.55c1.394 0 2.2-.674 2.2-1.677 0-1.004-.806-1.655-2.2-1.655h-12.55l2.992-3.79h9.146c4.51 0 7.145 2.22 7.145 5.468 0 3.247-2.646 5.373-7.177 5.373l.009.007Z" fill="url(#c)"/></g><defs><linearGradient id="b" x1="0" y1="23.948" x2="98.316" y2="23.948" gradientUnits="userSpaceOnUse"><stop stop-color="#EDEDED"/><stop offset="1" stop-color="#A2A0A1"/></linearGradient><linearGradient id="c" x1="17.041" y1="23.948" x2="84.036" y2="23.948" gradientUnits="userSpaceOnUse"><stop stop-color="#EDEDED"/><stop offset="1" stop-color="#A2A0A1"/></linearGradient><clipPath id="a"><path fill="#fff" d="M0 0h98.316v47.898H0z"/></clipPath></defs></svg>
